X:18277
T:Veux-tu venir Jeanne - rond de St-Vincent
C:Perroches: Midi Breton 
M:4/4
L:1/8
K:G
A|AGAB c2AA|AGAB c2AA|AGAB c2A:|\
|:A|ABc2 B2GA|BdcA c2AA|ABc2 B2GA|BdcA B2A:|
